src/assets/img/icons/payment_system/apple_pay.svg

<svg width="59" height="32" viewBox="0 0 59 32" fill="none" xmlns="http://www.w3.org/2000/svg">
<path d="M10.6803 7.0942C9.99521 7.90485 8.89911 8.54424 7.80301 8.4529C7.666 7.3568 8.20263 6.1922 8.8306 5.47288C9.51566 4.63939 10.7145 4.04567 11.685 4C11.7992 5.14177 11.3539 6.2607 10.6803 7.0942ZM11.6736 8.66984C10.0865 8.5785 8.72784 9.57184 7.97427 9.57184C7.20929 9.57184 6.0561 8.71551 4.80015 8.73834C3.16742 8.76118 1.64887 9.68601 0.815377 11.1589C-0.897277 14.1047 0.370087 18.4662 2.02565 20.8639C2.83631 22.0514 3.80681 23.353 5.0856 23.3073C6.29587 23.2617 6.77542 22.5195 8.23688 22.5195C9.70976 22.5195 10.1322 23.3073 11.411 23.2845C12.7355 23.2617 13.5689 22.0971 14.3796 20.9096C15.3044 19.5623 15.6812 18.2493 15.7041 18.1808C15.6812 18.1579 13.1465 17.1874 13.1237 14.2645C13.1008 11.8211 15.1218 10.6565 15.2131 10.588C14.0713 8.89819 12.2902 8.71551 11.6736 8.66984ZM20.842 5.35871V23.1589H23.6051V17.0733H27.43C30.9238 17.0733 33.3787 14.6755 33.3787 11.2046C33.3787 7.73359 30.9695 5.35871 27.5214 5.35871H20.842ZM23.6051 7.68792H26.7906C29.1884 7.68792 30.5585 8.9667 30.5585 11.216C30.5585 13.4653 29.1884 14.7555 26.7792 14.7555H23.6051V7.68792ZM38.4253 23.2959C40.1608 23.2959 41.7707 22.4167 42.5014 21.0238H42.5585V23.1589H45.116V14.2988C45.116 11.7298 43.0609 10.0742 39.8982 10.0742C36.9638 10.0742 34.7944 11.7526 34.7145 14.059H37.2036C37.4091 12.9629 38.4253 12.2436 39.8182 12.2436C41.5081 12.2436 42.4557 13.0314 42.4557 14.4814V15.4634L39.0076 15.6689C35.7992 15.863 34.0637 17.176 34.0637 19.4596C34.0637 21.7659 35.8563 23.2959 38.4253 23.2959ZM39.1674 21.1836C37.6945 21.1836 36.7583 20.4757 36.7583 19.3911C36.7583 18.2721 37.6603 17.6213 39.3844 17.5186L42.4557 17.3245V18.3292C42.4557 19.9962 41.0399 21.1836 39.1674 21.1836ZM48.5299 28C51.2245 28 52.4919 26.9724 53.5994 23.8554L58.4519 10.2455H55.6432L52.3891 20.7612H52.332L49.078 10.2455H46.1893L50.8706 23.2046L50.6194 23.9924C50.1969 25.3283 49.5119 25.8421 48.2902 25.8421C48.0732 25.8421 47.6508 25.8192 47.4795 25.7964V27.9315C47.6394 27.9772 48.3244 28 48.5299 28Z" fill="#919EAB"/>
</svg>

<svg width="59" height="32" fill="none" xmlns="http://www.w3.org/2000/svg"><path d="M10.68 7.094c-.685.81-1.78 1.45-2.877 1.359-.137-1.096.4-2.26 1.028-2.98.685-.834 1.883-1.427 2.854-1.473.114 1.142-.331 2.26-1.005 3.094Zm.994 1.576c-1.588-.091-2.946.902-3.7.902-.765 0-1.918-.856-3.174-.834-1.633.023-3.151.948-3.985 2.42-1.712 2.947-.445 7.308 1.21 9.706.811 1.187 1.782 2.489 3.06 2.443 1.21-.045 1.69-.787 3.152-.787 1.473 0 1.895.787 3.174.765 1.325-.023 2.158-1.188 2.969-2.375.924-1.348 1.301-2.66 1.324-2.73-.023-.022-2.558-.993-2.58-3.915-.023-2.444 1.998-3.609 2.09-3.677-1.143-1.69-2.924-1.872-3.54-1.918Zm9.168-3.311v17.8h2.763v-6.086h3.825c3.494 0 5.949-2.398 5.949-5.868 0-3.471-2.41-5.846-5.858-5.846h-6.679Zm2.763 2.329h3.186c2.397 0 3.767 1.279 3.767 3.528 0 2.25-1.37 3.54-3.779 3.54h-3.174V7.688Zm14.82 15.608c1.736 0 3.346-.88 4.076-2.272h.058v2.135h2.557v-8.86c0-2.57-2.055-4.225-5.218-4.225-2.934 0-5.104 1.679-5.184 3.985h2.49c.205-1.096 1.221-1.815 2.614-1.815 1.69 0 2.638.787 2.638 2.237v.982l-3.448.206c-3.209.194-4.944 1.507-4.944 3.79 0 2.307 1.792 3.837 4.361 3.837Zm.742-2.112c-1.473 0-2.409-.708-2.409-1.793 0-1.119.902-1.77 2.626-1.872l3.072-.194v1.004c0 1.667-1.416 2.855-3.289 2.855ZM48.53 28c2.694 0 3.962-1.028 5.07-4.145l4.852-13.61h-2.809L52.39 20.761h-.057l-3.254-10.515h-2.889l4.682 12.959-.252.787c-.422 1.336-1.107 1.85-2.329 1.85-.217 0-.64-.023-.81-.046v2.136c.16.045.844.068 1.05.068Z" fill="#919EAB"/></svg>
